.files/icons/devices/Server.svg

<svg fill="none" height="48" viewBox="0 0 48 48" width="48" xmlns="http://www.w3.org/2000/svg"><g clip-rule="evenodd" fill="#000" fill-rule="evenodd"><path d="m6 6c0-1.10457.89543-2 2-2h32c1.1046 0 2 .89543 2 2v8c0 1.1046-.8954 2-2 2h-32c-1.10457 0-2-.8954-2-2zm14 3c0-.55228.4477-1 1-1h12c.5523 0 1 .44772 1 1v2c0 .5523-.4477 1-1 1h-12c-.5523 0-1-.4477-1-1zm-4 1c0 1.1046-.8954 2-2 2s-2-.8954-2-2c0-1.10457.8954-2 2-2s2 .89543 2 2z" opacity=".3"/><path d="m6 20c0-1.1046.89543-2 2-2h32c1.1046 0 2 .8954 2 2v8c0 1.1046-.8954 2-2 2h-32c-1.10457 0-2-.8954-2-2zm14 3c0-.5523.4477-1 1-1h12c.5523 0 1 .4477 1 1v2c0 .5523-.4477 1-1 1h-12c-.5523 0-1-.4477-1-1zm-4 1c0 1.1046-.8954 2-2 2s-2-.8954-2-2 .8954-2 2-2 2 .8954 2 2z"/><path d="m6 34c0-1.1046.89543-2 2-2h32c1.1046 0 2 .8954 2 2v8c0 1.1046-.8954 2-2 2h-32c-1.10457 0-2-.8954-2-2zm14 3c0-.5523.4477-1 1-1h12c.5523 0 1 .4477 1 1v2c0 .5523-.4477 1-1 1h-12c-.5523 0-1-.4477-1-1zm-4 1c0 1.1046-.8954 2-2 2s-2-.8954-2-2 .8954-2 2-2 2 .8954 2 2z"/></g></svg>

<svg width="48" height="48" viewBox="0 0 48 48" fill="none" xmlns="http://www.w3.org/2000/svg">
<path opacity="0.3" fill-rule="evenodd" clip-rule="evenodd" d="M6 6C6 4.89543 6.89543 4 8 4H40C41.1046 4 42 4.89543 42 6V14C42 15.1046 41.1046 16 40 16H8C6.89543 16 6 15.1046 6 14V6ZM20 9C20 8.44772 20.4477 8 21 8H33C33.5523 8 34 8.44772 34 9V11C34 11.5523 33.5523 12 33 12H21C20.4477 12 20 11.5523 20 11V9ZM16 10C16 11.1046 15.1046 12 14 12C12.8954 12 12 11.1046 12 10C12 8.89543 12.8954 8 14 8C15.1046 8 16 8.89543 16 10Z" fill="black"/>
<path fill-rule="evenodd" clip-rule="evenodd" d="M6 20C6 18.8954 6.89543 18 8 18H40C41.1046 18 42 18.8954 42 20V28C42 29.1046 41.1046 30 40 30H8C6.89543 30 6 29.1046 6 28V20ZM20 23C20 22.4477 20.4477 22 21 22H33C33.5523 22 34 22.4477 34 23V25C34 25.5523 33.5523 26 33 26H21C20.4477 26 20 25.5523 20 25V23ZM16 24C16 25.1046 15.1046 26 14 26C12.8954 26 12 25.1046 12 24C12 22.8954 12.8954 22 14 22C15.1046 22 16 22.8954 16 24Z" fill="black"/>
<path fill-rule="evenodd" clip-rule="evenodd" d="M6 34C6 32.8954 6.89543 32 8 32H40C41.1046 32 42 32.8954 42 34V42C42 43.1046 41.1046 44 40 44H8C6.89543 44 6 43.1046 6 42V34ZM20 37C20 36.4477 20.4477 36 21 36H33C33.5523 36 34 36.4477 34 37V39C34 39.5523 33.5523 40 33 40H21C20.4477 40 20 39.5523 20 39V37ZM16 38C16 39.1046 15.1046 40 14 40C12.8954 40 12 39.1046 12 38C12 36.8954 12.8954 36 14 36C15.1046 36 16 36.8954 16 38Z" fill="black"/>
</svg>
